X: 75
T: Sliabh Russell
M: 6/8
L: 1/8
R: Jig
K: A Dorian
|:"Am"eAA Bcd|eaf "G"ged|"Am"edB cBA|"G"BAG Bcd|!
"Am"eAA Bcd|eaf "G"ged|"Am"edB cBA|1 "G"BAG "Am"A3:|2 "G"BAG "Am"ABd||!
|:"Am"eaa efg|agf "G"ged|"Am"eaa efg|"D"fed B2A|!
"Am"eaa efg|agf "G"ged|"G"edB "Am"cBA|"G"BAG "Am"ABd:|

